X: 2
T:The Moneymusk
M:4/4
L:1/8
F:http://blackrosetheband.googlepages.com/ABCTUNES.ABC May 2009
S:Altan: The Blue Idol - Track 09, Tune 2
R:highland
K:Amaj
|:"A"eAcf eAcf|eAcA "D"Bcdf|"A"eAcf eAce| 1 "D"fdBd "A"cA (3agf:|2 "D"fdBd "A"cA A2|
|"A"aece fece|aece "D"fBB2|"A"aece fece|"D"fdBd "A"cA A2|
|"A"aece fece|aece "D"fBBg| "A"(3aba (3gag (3fgf ec|"D"defg "A"a2 af||

